X: 0
T: Faithless Nancy Dawson
O: 196?
M: C|
K:
P: A-Rovin'   [A]
K: A
E \
| "A"AA "E7"GE | "A"AA "E7"GE | "A"A>B cd | e3 e | "D"ff df | "A"ee ce |
| "D(Bm)"dc BA | "F#m"cA "E7"FE | "A"A>B cd | "A"ea "D"fd | "A"c2 "E7"B2 | "A"A3 e | "D"f>e df |
| "A"e>d ce | "Bm"dc BA | "F#m"cA "E7"FE | "A"A>B cd | "A"ea "D"fd | "A"c2 "E7"B2 | "A"A3 |]
P: A-Rovin'   [D]
K: D
A \
| "D"dd "A7"cA | "D"dd "A7"cA | "D"d>e fg | a3 a | "G"bb gb | "D"aa fa |
| "G(Em)"gf ed | "Bm"fd "A7"BA | "D"d>e fg | "D"ad' "G"bg | "D"f2 "A7"e2 | "D"d3 a | "G"b>a gb |
| "D"a>g fa | "Em"gf ed | "Bm"fd "A7"BA | "D"d>e fg | "D"ad' "G"bg | "D"f2 "A7"e2 | "D"d3 |]
P: A-Rovin'   [G]
K: G
D \
| "G"GG "D7"FD | "G"GG "D7"FD | "G"G>A Bc | d3 d | "C"ee ce | "G"dd Bd |
| "C(Am)"cB AG | "Em"BG "D7"ED | "G"G>A Bc | "G"dg "C"ec | "G"B2 "D7"A2 | "G"G3 d | "C"e>d ce |
| "G"d>c Bd | "Am"cB AG | "Em"BG "D7"ED | "G"G>A Bc | "G"dg "C"ec | "G"B2 "D7"A2 | "G"G3 |]

%%sep 1 1 500


